X:1
T:Title
%%score [ ( 1 2 ) ( 3 4 ) ]
L:1/8
Q:1/4=120
M:4/4
K:Eb
V:1 treble nm="Midi_74"
V:2 treble 
V:3 bass nm="Midi_74"
V:4 bass 
V:1
 G8 | G4 G4 | G8 || G8 | A4 c4 | B4 A4 | G8 |] %7
V:2
 E8 | F4 E4 | D8 || E8 | E4 E4 | E4 D4 | E8 |] %7
V:3
 C8 | D4 C4 | =B,8"^William Felton\n(1715-1769)" || _B,8 | A,4 A,4 | G,4 B,4 | B,8 |] %7
V:4
 C,8 | =B,,4 C,4 | G,,8 || E,8 | C,4 A,,4 | B,,4 B,,4 | E,8 |] %7

